X:15
T: I'm So Lonesome I Could Cry
C: Hank Williams
M:3/4
L:1/4
K:F clef=treble
"F"A2- A/F/ | A2- A/F/ | A2- A/F/ | C2 F |
 A2- A/F/ | A2- A/F/ | C3- | "F7"C2 A |
 "Bb"B2 B | B2 B | "F" c2 A | C2 A/c/ |
 c2 A |"C7" G2 A/G/ | "F"F3 |] 
W:Hear that lonesome whippoorwill
W:He sounds too blue to fly
W:The midnight train is whining low
W:I'm so lonesome I could cry
W:
W:I've never seen a night so long
W:When time goes crawling by
W:The moon just went behind the clouds
W:To hide its face and cry
W:
W:Did you ever see a robin weep
W:When leaves begin to die?
W:That means he's lost the will to live
W:I'm so lonesome I could cry
W:
W:The silence of a falling star
W:Lights up a purple sky
W:And as I wonder where you are
W:I'm so lonesome I could cry
W:

